X: 3
T: The Rattlin' Bog
R: polka
M: 2/4
L: 1/8
K: Dmaj
f2f>e d2d>B|A>Bd>e f<BB>e|f2f>e d2d>B|1 A>da>g f<dd>e:|2 A>da>g f<dd>B||A>df>d a>df>d|A>df>d e<BB2|A>df>d a>df>d|f/g/a e>g f<dd>B|A>df>d a>df>d|A>df>d e<BB>e|f2f>e d2d>B|A>da>g f<dd>e|]


Tune 583	Setting 21615

